src/assets/icons/weeks,simple,03.svg

<svg width="48" height="48" viewBox="0 0 48 48" fill="none" xmlns="http://www.w3.org/2000/svg">
<rect opacity="0.2" x="5" y="5" width="38" height="38" rx="4" fill="black"/>
<path d="M5 13C5 9.22876 5 7.34315 6.17157 6.17157C7.34315 5 9.22876 5 13 5H35C38.7712 5 40.6569 5 41.8284 6.17157C43 7.34315 43 9.22876 43 13V15H5V13Z" fill="black"/>
<path d="M23.9563 38.2386C27.8768 38.2386 30.6808 36.0824 30.6722 33.0994C30.6808 30.9261 29.3001 29.375 26.7347 29.0511V28.9148C28.6864 28.5653 30.033 27.1847 30.0245 25.2244C30.033 22.4716 27.6211 20.3068 24.0075 20.3068C20.4279 20.3068 17.7347 22.4034 17.6836 25.4205H21.2205C21.2631 24.0909 22.4819 23.2301 23.9904 23.2301C25.4819 23.2301 26.479 24.1335 26.4705 25.446C26.479 26.8182 25.3114 27.7472 23.6325 27.7472H22.0046V30.4574H23.6325C25.6097 30.4574 26.8455 31.446 26.837 32.8523C26.8455 34.2415 25.6523 35.196 23.9648 35.196C22.337 35.196 21.1183 34.3438 21.0501 33.0653H17.3342C17.3938 36.1165 20.1211 38.2386 23.9563 38.2386Z" fill="black"/>
</svg>

<svg xmlns="http://www.w3.org/2000/svg" width="48" height="48" fill="none" viewBox="0 0 48 48">
  <rect width="38" height="38" x="5" y="5" fill="#000" opacity=".2" rx="4"/>
  <path fill="#000" d="M5 13c0-3.771 0-5.657 1.172-6.828C7.343 5 9.229 5 13 5h22c3.771 0 5.657 0 6.828 1.172C43 7.343 43 9.229 43 13v2H5v-2zM23.956 38.239c3.92 0 6.725-2.157 6.716-5.14.009-2.173-1.372-3.724-3.937-4.048v-.136c1.951-.35 3.298-1.73 3.29-3.69.008-2.753-2.404-4.918-6.017-4.918-3.58 0-6.273 2.096-6.324 5.114h3.537c.042-1.33 1.26-2.19 2.77-2.19 1.49 0 2.488.902 2.48 2.215.008 1.372-1.16 2.301-2.838 2.301h-1.628v2.71h1.628c1.977 0 3.213.989 3.204 2.395.009 1.39-1.185 2.344-2.872 2.344-1.628 0-2.847-.852-2.915-2.13h-3.716c.06 3.05 2.787 5.173 6.622 5.173z"/>
</svg>
